X: 32200
T: Pheasant's Dance, The
R: jig
M: 6/8
K: Gmajor
B2 c|ded c2 B|ABc dBG|E2 A FDF|G3 GA/B/c|
d2 d cdB|AA/B/c dBG|EE/F/G AFD|G3||
B2 G|c2 A B2 G|A2 g dBG|E2 A FDF|G3 BAG|
cBA BB/A/G|Ag/g/g d2 G|EAE FD/E/F|G3||
BdB|cec AcA|BdB GBG|AcA FDF|G3 B/c/dB|
c2 c A/B/cA|B2 B G/A/BG|A2 A FAD|G3||
f2 d|gdB gdB|a2 A Bcd|E2 A FdF|G3 fd/e/f|
gdB g2 B|a2 A B2 d|E2 E FAd|G3||

